X:300
%%etbk:tnset id:93,pos:2,rep:3x,ant:
%%etbk:wsite http://www.thesession.org/tunes/display/319
%%etbk:pldat 2015-01-24T12:35,2015-01-18T11:11,2014-05-11T12:17,2014-05-07T16:16,2014-03-15T16:34,2013-12-10T19:08,2013-11-24T15:34,2013-11-19T16:47,2013-11-13T16:52,2013-05-15T17:00,2013-05-01T15:49
T: Jerry Beaver's Hat
Z: Piano Box Version by Martin Fleischmann
H: Created 2013-02-19 /  Last Modified 2013-02-19
M: 6/8
L: 1/8
R: jig
K: Dmaj
|: "D"!1!D!2!F!3!A !5!d!3!de | !5!f!3!d!2!B B!1!A!2!F | !1!A!2!A!1!A !4!d!1!A!3!F | "A"!2!EEE !4!GFE |
"D"!1!D!2!F!3!A !5!d!3!de | !5!f!3!d!2!B B!1!A!2!F | !1!A!2!A!1!A !4!d!1!A!3!F | !1!DED D2 :||
!5!d |: "D"!1!d!3!fa !5!a!3!fd | "G"!3!gbg "D"!2!faf | !1!d!3!fa !5!a!3!f!1!d | "A"!2!cd!4!e !4!e!2!c!1!A |
"D"!2!d!3!f!5!a af!1!d | "G"!3!gbg "D"!2!faf | !1!B2!2!B !1!A!2!F!4!A | !1!DED D2 :||


